Adwaita++/apps/16/podcast.svg

<svg height="16" width="16" xmlns="http://www.w3.org/2000/svg">
  <path d="m1 2.4999995c-.55399997 0-.99999997.446-.99999997 1v9.0000005c0 .554.446 1 .99999997 1h14c.554 0 1-.446 1-1v-9.0000005c0-.554-.446-1-1-1zm0 3h14v4.0000001h-14zm3 1a1 1 0 0 0 -1 1 1 1 0 0 0 1 1.0000001 1 1 0 0 0 1-1.0000001 1 1 0 0 0 -1-1zm2 0v2.0000001h4v-2.0000001zm6 0a1 1 0 0 0 -1 1 1 1 0 0 0 1 1.0000001 1 1 0 0 0 1-1.0000001 1 1 0 0 0 -1-1zm-7 4.0000005h6l1 2h-8z" fill="#444"/>
</svg>

<svg xmlns="http://www.w3.org/2000/svg" width="16" height="16" version="1.1">
 <path fill="#444" d="m 1,2.4999995 c -0.55399997,0 -0.999999966101697,0.446 -0.999999966101697,1 V 12.5 C 3.3898303e-8,13.054 0.44600003,13.5 1,13.5 h 14 c 0.554,0 1,-0.446 1,-1 V 3.4999995 c 0,-0.554 -0.446,-1 -1,-1 z m 0,3 H 15 V 9.4999996 H 1 Z m 3,1 a 1,1 0 0 0 -1,1 1,1 0 0 0 1,1.0000001 1,1 0 0 0 1,-1.0000001 1,1 0 0 0 -1,-1 z m 2,0 v 2.0000001 h 4 V 6.4999995 Z m 6,0 a 1,1 0 0 0 -1,1 1,1 0 0 0 1,1.0000001 1,1 0 0 0 1,-1.0000001 1,1 0 0 0 -1,-1 z M 5,10.5 h 6 l 1,2 H 4 Z"/>
</svg>
